images/Logos.svg/instagram-1.svg

<svg width="20" height="20" viewBox="0 0 20 20" fill="none" xmlns="http://www.w3.org/2000/svg">
<g clip-path="url(#clip0)">
<path d="M19.9804 5.88005C19.9336 4.81738 19.7617 4.0868 19.5156 3.45374C19.2616 2.78176 18.8709 2.18014 18.359 1.68002C17.8589 1.1721 17.2533 0.777435 16.5891 0.527447C15.9524 0.281274 15.2256 0.109427 14.163 0.0625732C13.0924 0.0117516 12.7525 0 10.0371 0C7.32173 0 6.98185 0.0117516 5.91521 0.0586052C4.85253 0.105459 4.12195 0.277459 3.48904 0.523479C2.81692 0.777435 2.2153 1.16814 1.71517 1.68002C1.20726 2.18014 0.812743 2.78573 0.562603 3.44992C0.31643 4.0868 0.144583 4.81341 0.0977294 5.87609C0.0469078 6.9467 0.0351562 7.28658 0.0351562 10.002C0.0351562 12.7173 0.0469078 13.0572 0.0937614 14.1239C0.140615 15.1865 0.312615 15.9171 0.558787 16.5502C0.812743 17.2221 1.20726 17.8238 1.71517 18.3239C2.2153 18.8318 2.82088 19.2265 3.48508 19.4765C4.12195 19.7226 4.84856 19.8945 5.91139 19.9413C6.97788 19.9883 7.31791 19.9999 10.0333 19.9999C12.7487 19.9999 13.0885 19.9883 14.1552 19.9413C15.2179 19.8945 15.9484 19.7226 16.5813 19.4765C17.9254 18.9568 18.9881 17.8941 19.5078 16.5502C19.7538 15.9133 19.9258 15.1865 19.9727 14.1239C20.0195 13.0572 20.0313 12.7173 20.0313 10.002C20.0313 7.28658 20.0273 6.9467 19.9804 5.88005ZM18.1794 14.0457C18.1364 15.0225 17.9723 15.5499 17.8356 15.9015C17.4995 16.7728 16.808 17.4643 15.9367 17.8004C15.5851 17.9372 15.0538 18.1012 14.0809 18.1441C13.026 18.1911 12.7096 18.2027 10.0411 18.2027C7.37255 18.2027 7.05221 18.1911 6.00113 18.1441C5.02438 18.1012 4.49693 17.9372 4.1453 17.8004C3.71171 17.6402 3.31704 17.3862 2.9967 17.0541C2.6646 16.7298 2.41065 16.3391 2.2504 15.9055C2.11365 15.5539 1.94959 15.0225 1.90671 14.0497C1.8597 12.9948 1.8481 12.6783 1.8481 10.0097C1.8481 7.34122 1.8597 7.02087 1.90671 5.96995C1.94959 4.99319 2.11365 4.46575 2.2504 4.11412C2.41065 3.68038 2.6646 3.28586 3.00067 2.96536C3.32483 2.63327 3.71553 2.37931 4.14927 2.21921C4.5009 2.08247 5.03231 1.9184 6.0051 1.87537C7.05999 1.82851 7.37652 1.81676 10.0449 1.81676C12.7174 1.81676 13.0337 1.82851 14.0848 1.87537C15.0616 1.9184 15.589 2.08247 15.9407 2.21921C16.3742 2.37931 16.7689 2.63327 17.0893 2.96536C17.4213 3.28967 17.6753 3.68038 17.8356 4.11412C17.9723 4.46575 18.1364 4.99701 18.1794 5.96995C18.2263 7.02484 18.238 7.34122 18.238 10.0097C18.238 12.6783 18.2263 12.9908 18.1794 14.0457Z" fill="#AFB1B8"/>
<path d="M10.0371 4.8642C7.20074 4.8642 4.89941 7.16537 4.89941 10.0019C4.89941 12.8385 7.20074 15.1396 10.0371 15.1396C12.8737 15.1396 15.1749 12.8385 15.1749 10.0019C15.1749 7.16537 12.8737 4.8642 10.0371 4.8642ZM10.0371 13.3346C8.19702 13.3346 6.70442 11.8422 6.70442 10.0019C6.70442 8.16165 8.19702 6.66921 10.0371 6.66921C11.8774 6.66921 13.3698 8.16165 13.3698 10.0019C13.3698 11.8422 11.8774 13.3346 10.0371 13.3346Z" fill="#AFB1B8"/>
<path d="M16.5777 4.6611C16.5777 5.32346 16.0407 5.86052 15.3781 5.86052C14.7158 5.86052 14.1787 5.32346 14.1787 4.6611C14.1787 3.99858 14.7158 3.46167 15.3781 3.46167C16.0407 3.46167 16.5777 3.99858 16.5777 4.6611Z" fill="#AFB1B8"/>
</g>
<defs>
<clipPath id="clip0">
<rect width="20" height="20" fill="white"/>
</clipPath>
</defs>
</svg>

<svg xmlns="http://www.w3.org/2000/svg" width="20" height="20" fill="none" xmlns:v="https://vecta.io/nano"><g clip-path="url(#A)" fill="#afb1b8"><path d="M19.98 5.88c-.047-1.063-.22-1.793-.465-2.426a4.88 4.88 0 0 0-1.157-1.774 4.92 4.92 0 0 0-1.77-1.153C15.952.28 15.226.1 14.163.063L10.037 0 5.915.06C4.853.105 4.122.277 3.5.523A4.88 4.88 0 0 0 1.715 1.68c-.508.5-.902 1.106-1.153 1.77-.246.637-.418 1.363-.465 2.426l-.063 4.126.06 4.122c.047 1.063.22 1.793.465 2.426a4.93 4.93 0 0 0 1.156 1.774c.5.508 1.106.903 1.77 1.153.637.246 1.363.418 2.426.465l4.122.06 4.122-.06c1.063-.047 1.793-.22 2.426-.465a5.12 5.12 0 0 0 2.927-2.926c.246-.637.418-1.364.465-2.426l.06-4.122-.05-4.122zm-1.8 8.166c-.043.977-.207 1.504-.344 1.856a3.32 3.32 0 0 1-1.899 1.899c-.352.137-.883.3-1.856.344l-4.04.06c-2.67 0-3-.012-4.04-.06-.977-.043-1.504-.207-1.856-.344a3.09 3.09 0 0 1-1.15-.746 3.11 3.11 0 0 1-.746-1.149c-.137-.352-.3-.883-.344-1.856L1.848 10l.06-4.04c.043-.977.207-1.504.344-1.856a3.04 3.04 0 0 1 .75-1.149 3.1 3.1 0 0 1 1.15-.746c.352-.137.883-.3 1.856-.344l4.04-.06 4.04.06c.977.043 1.504.207 1.856.344a3.1 3.1 0 0 1 1.15.746 3.11 3.11 0 0 1 .746 1.149c.137.352.3.883.344 1.856l.06 4.04-.06 4.036zm-8.143-9.182a5.14 5.14 0 0 0-5.138 5.138 5.14 5.14 0 0 0 5.138 5.138 5.14 5.14 0 0 0 5.138-5.138 5.14 5.14 0 0 0-5.138-5.138zm0 8.47c-1.84 0-3.333-1.492-3.333-3.333s1.493-3.33 3.333-3.33 3.333 1.492 3.333 3.333-1.492 3.333-3.333 3.333zm6.54-8.674a1.2 1.2 0 0 1-1.2 1.199 1.2 1.2 0 0 1-1.199-1.199 1.2 1.2 0 0 1 1.199-1.199 1.2 1.2 0 0 1 1.2 1.199z"/></g><defs><clipPath id="A"><path fill="#fff" d="M0 0h20v20H0z"/></clipPath></defs></svg>
